X: 3067
Q:"Strathspey."
M: C
L: 1/16
K: G
uD2 |\
vG3vBud3uB c3eg3e | (dB3)B3G (BA3)A3D |\
d2 |\
cBAG G3D E3FG3e |
dB3 gB3 BA3 A3d |\
[1 cBAG G3D E3FG3e | dB3 A3B G6 :|\
[2 G3Bd3B c3eg3e | (dB3)A3B G6 |]


